X:28
T:28 Hunt The Squirrel
C:Voice MS
I:abc2nwc
M:2/4
L:1/16
K:A
A2e2e2f2|e4c4|A2BcB2A2|A2BcB2A2|A2e2e2f2|e4c4|A2BcB2A2|A4A4:|
d2e2f2ef|d2e2f2ef|d2e2f2g2|a4agf2|e2c2e2c2|e2c2d3f|A2BcB2A2|A4A4:|


